!!!SOCIAL_FUNCTION:	songs of social dance
!!!PDT:	1939
!!!OTL: No_79_Song_Before_Feast.krn
!!!LANG: Non-Tone
!!!LING_GROUP: Wakashan
!!!REG: Pacific Northwest
**kern
*staff1
=1-
*clefF4
*k[f#c#]
*M2/4
4B\
8.A#\L
16A#\Jk
=2
8.A\L
16F#\Jk
8A\L
16A\L
16A\JJ
=3
8.F#\L
16D\Jk
8D\
8r
=4
8.A\L
16A\Jk
16B\LK
8.A\J
=5||
*M3/4
8F#\L
16F#\L
16F#\JJ
8F#\L
16.F#\L
32F#\JJk
8F#\
8r
=6
8A\L
8A\J
16A\LL
16F#\J
8F#\J
4F#\
=7
8A\L
8A\J
16.F#\LL
32D\JK
8D\J
4r
=8||
*M2/4
8F#\L
16.A\L
32F#\JJk
8F#\L
8F#\J
=9
4D\
8r
8B\
=10
16B\LK
8A\
16A\Jk
4A#;\
=11||
*M3/4
(2B\
12B\L)
12A\
24F#\Jk
24r
=12
8.A\L
16A\Jk
12B\L
12A\
12B\J
16.A\LL
32F#\JK
8F#\J
=13
[2B\
8B\]
24A\LL
24B\
24A\JJ
=14||
*M2/4
4A\
8r
8c#\
=15
8c#\L
8B\J
16A\
16r
8B\
=16||
*M3/4
[2B\
8B\]
24A\LL
24B\
24A\JJ
=17||
*M2/4
4A\
8r
8c#\
=18
16c#\LK
8.B\J
16A\
16r
8B\
=19||
*M3/4
[2B\
8B\]
24A\LL
24B\
24A\JJ
=20||
*M2/4
4..A\
16A\
=21
16B\LL
16A\JJ
8r
16F#\
16r
16B\LL
16A\JJ
=22
4.A\
32r
32B\
32r
32B\
=23||
*M3/4
16B\LL
16A\JJ
16r
16F#\
8r
16B\LL
16A\JJ
4A\
=24||
*M2/4
8A\L
8A\J
4A\
=25
8A\L
8A\J
4A\
==
*-
